img/icons/icon-cupcake.svg

<svg width="18" height="18" viewBox="0 0 18 18" fill="none" xmlns="http://www.w3.org/2000/svg">
<path d="M2.23779 11.9023C0.950069 11.5651 0 10.3935 0 9C0 7.91329 0.577806 6.96153 1.44296 6.43519C1.77097 6.23564 2 5.88395 2 5.5C2 2.46243 4.46243 0 7.5 0C8.63193 0 9.684 0.341942 10.5585 0.928165C10.9304 1.17745 11.4138 1.20323 11.846 1.08641C12.0545 1.03006 12.2737 1 12.5 1C13.8807 1 15 2.11929 15 3.5C15 3.83774 15.1969 4.16713 15.5096 4.29468C16.9704 4.89045 18 6.32499 18 8C18 9.56026 17.1067 10.9119 15.8036 11.5713L15.1095 17.124C15.0469 17.6245 14.6215 18 14.1172 18H3.88278C3.37846 18 2.95306 17.6245 2.8905 17.124L2.23779 11.9023ZM4 5.5C4 6.68934 3.3092 7.64086 2.48246 8.14383C2.18886 8.32245 2 8.64009 2 9C2 9.55229 2.44772 10 3 10H14C15.1046 10 16 9.10457 16 8C16 7.16564 15.4885 6.44599 14.7544 6.14658C13.5999 5.67575 13 4.55001 13 3.5C13 3.22386 12.7761 3 12.5 3C12.4516 3 12.4078 3.00634 12.3679 3.01712C11.5571 3.23627 10.4331 3.25185 9.44494 2.58946C8.88951 2.21715 8.22315 2 7.5 2C5.567 2 4 3.567 4 5.5ZM4.26556 12L4.76556 16H6V12H4.26556ZM10 16V12H8V16H10ZM12 16H13.2344L13.7344 12H12V16Z" fill="white"/>
</svg>

<svg width="18" height="18" viewBox="0 0 18 18" fill="none" xmlns="http://www.w3.org/2000/svg"><path d="M2.238 11.902a3.001 3.001 0 01-.795-5.467c.328-.2.557-.551.557-.935A5.5 5.5 0 0110.559.928c.371.25.855.275 1.287.158A2.503 2.503 0 0115 3.5c0 .338.197.667.51.795a4.001 4.001 0 01.294 7.276l-.694 5.553a1 1 0 01-.993.876H3.883a1 1 0 01-.993-.876l-.652-5.222zM4 5.5c0 1.19-.69 2.14-1.518 2.644A1 1 0 003 10h11a2 2 0 00.754-3.853C13.6 5.676 13 4.55 13 3.5a.5.5 0 00-.632-.483c-.81.22-1.935.235-2.923-.428A3.5 3.5 0 004 5.5zm.266 6.5l.5 4H6v-4H4.266zM10 16v-4H8v4h2zm2 0h1.234l.5-4H12v4z" fill="#fff"/></svg>
